public/assets/images/logos/simplabs.svg

<svg viewBox="0 0 210 37" xmlns="http://www.w3.org/2000/svg" fill-rule="evenodd" clip-rule="evenodd" stroke-linejoin="round" stroke-miterlimit="1.41421"><path d="M141.33 1v22.8a5.245 5.245 0 0 0 1.35 3.95c.89.85 2.38 1.31 4.5 1.35l.47-2.82a9.013 9.013 0 0 1-1.35-.28 2.093 2.093 0 0 1-.9-.5 1.807 1.807 0 0 1-.47-.85 5.225 5.225 0 0 1-.15-1.37V1h-3.45zm32.57 0v27.2c.79.22 1.79.43 3 .65 1.405.228 2.827.335 4.25.32 1.364.022 2.72-.209 4-.68a8.48 8.48 0 0 0 3-1.95 8.598 8.598 0 0 0 1.92-3.1c.479-1.313.716-2.702.7-4.1a13.065 13.065 0 0 0-.58-4 8.933 8.933 0 0 0-1.67-3.12 7.639 7.639 0 0 0-2.72-2 8.848 8.848 0 0 0-3.68-.73 9.175 9.175 0 0 0-2.95.45 9.482 9.482 0 0 0-1.9.82V1h-3.37zM75.43 2.1a2.242 2.242 0 0 0-1.57.6 2 2 0 0 0-.63 1.6 2.099 2.099 0 0 0 .63 1.63 2.459 2.459 0 0 0 3.15 0 2.129 2.129 0 0 0 .65-1.62A2.06 2.06 0 0 0 77 2.7a2.253 2.253 0 0 0-1.57-.6zM61.58 9.45a8.204 8.204 0 0 0-5.15 1.45 4.765 4.765 0 0 0-1.87 4 4.332 4.332 0 0 0 1.63 3.63c.532.43 1.121.783 1.75 1.05.68.3 1.38.61 2.13.9 1.159.415 2.266.962 3.3 1.63a2.262 2.262 0 0 1 1 1.95 1.795 1.795 0 0 1-1 1.72 6.858 6.858 0 0 1-3.12.55 11.114 11.114 0 0 1-3.45-.43l-1.82-.62v3.1c.34.12.75.25 1.27.4 1.31.31 2.655.444 4 .4a10.001 10.001 0 0 0 5.63-1.32 4.475 4.475 0 0 0 2-4 5.518 5.518 0 0 0-.4-2.25 4.349 4.349 0 0 0-1.15-1.57 7.73 7.73 0 0 0-1.93-1.14c-.72-.32-1.51-.66-2.42-1-.69-.24-1.28-.46-1.78-.68a6.062 6.062 0 0 1-1.25-.7 2.47 2.47 0 0 1-.72-.85 2.372 2.372 0 0 1-.25-1.1 1.843 1.843 0 0 1 1.07-1.75 5.377 5.377 0 0 1 2.52-.55c.949-.02 1.897.081 2.82.3a8.88 8.88 0 0 1 1.73.6v-3.1L66 10c-.36-.1-.78-.19-1.25-.27-.47-.08-1-.17-1.5-.23a15.366 15.366 0 0 0-1.62-.07l-.05.02zm97.7 0a19.922 19.922 0 0 0-3.37.27 12.97 12.97 0 0 0-1.77.43v2.9c.611-.214 1.24-.371 1.88-.47.99-.174 1.994-.258 3-.25a5.275 5.275 0 0 1 2.17.4c.51.219.957.563 1.3 1 .324.43.553.924.67 1.45.12.542.18 1.095.18 1.65v.95c-.1 0-.28-.08-.53-.12l-.85-.15c-.33-.06-.68-.11-1.05-.15-.37-.04-.73 0-1.07 0a14.417 14.417 0 0 0-3.12.33 7.987 7.987 0 0 0-2.57 1 5.055 5.055 0 0 0-1.75 1.82 5.236 5.236 0 0 0-.65 2.68c-.028.953.16 1.9.55 2.77a4.738 4.738 0 0 0 1.55 1.88 6.76 6.76 0 0 0 2.38 1c.984.227 1.991.338 3 .33.76 0 1.52 0 2.3-.1.78-.1 1.48-.13 2.15-.2.67-.07 1.27-.14 1.8-.23l1.25-.2V16.65c.01-.989-.114-1.975-.37-2.93a5.443 5.443 0 0 0-3.58-3.72 10.246 10.246 0 0 0-3.5-.52v-.03zm43.8 0A8.13 8.13 0 0 0 198 10.9a4.782 4.782 0 0 0-1.9 4 4.502 4.502 0 0 0 1.62 3.63c.54.429 1.135.782 1.77 1.05.68.3 1.39.61 2.13.9a15.75 15.75 0 0 1 3.28 1.63 2.282 2.282 0 0 1 1 1.95c.043.721-.353 1.4-1 1.72a6.871 6.871 0 0 1-3.12.55 11.144 11.144 0 0 1-3.45-.43c-.85-.28-1.45-.5-1.85-.65v3.13c.34.11.77.25 1.3.4 1.31.31 2.655.444 4 .4a10.001 10.001 0 0 0 5.63-1.32 4.485 4.485 0 0 0 2-4 5.585 5.585 0 0 0-.4-2.25 4.446 4.446 0 0 0-1.18-1.57 7.594 7.594 0 0 0-1.82-1.15c-.71-.32-1.51-.66-2.43-1-.69-.24-1.28-.46-1.77-.68a5.946 5.946 0 0 1-1.25-.7 2.44 2.44 0 0 1-.73-.85 2.412 2.412 0 0 1-.25-1.1c-.027-.747.4-1.44 1.08-1.75a5.27 5.27 0 0 1 2.5-.55c.959-.02 1.916.081 2.85.3a9.011 9.011 0 0 1 1.7.57v-3.05l-.15-.05c-.36-.1-.78-.19-1.25-.27-.47-.08-1-.17-1.53-.23a15.366 15.366 0 0 0-1.62-.07l-.08-.01zm-112 .07c-1.089.033-2.175.14-3.25.32-1.3.22-2.34.41-3.13.6v18.29h3.4V12.85c.1 0 .3-.08.6-.12l1-.12c.36 0 .73 0 1.13-.07.4-.07.75-.05 1.1-.05a4.751 4.751 0 0 1 2 .38A2.86 2.86 0 0 1 95.18 14a5.7 5.7 0 0 1 .65 2c.14.943.207 1.896.2 2.85v9.85h3.43V18.15a18.098 18.098 0 0 0-.15-2.35 12.44 12.44 0 0 0-.45-2 5.777 5.777 0 0 1 1.55-.83 7.702 7.702 0 0 1 2.85-.45 4.913 4.913 0 0 1 2.07.38c.517.234.953.617 1.25 1.1a5.47 5.47 0 0 1 .63 2c.126.945.186 1.897.18 2.85v9.85h3.43V18.15a19.747 19.747 0 0 0-.28-3.45 6.83 6.83 0 0 0-1.09-2.7 5.194 5.194 0 0 0-2.2-1.8 8.895 8.895 0 0 0-3.62-.63 9.202 9.202 0 0 0-2.15.23c-.611.144-1.213.328-1.8.55a9.427 9.427 0 0 0-1.37.63c-.37.22-.63.38-.8.5A5.524 5.524 0 0 0 95.38 10a8.559 8.559 0 0 0-3.1-.48h-1.22.02zm33.13 0a21.22 21.22 0 0 0-3.07.32c-1.22.23-2.24.46-3.05.65v24.94h3.45V27.9a9.32 9.32 0 0 0 1.9.82 9.04 9.04 0 0 0 2.93.43 8.994 8.994 0 0 0 3.7-.73 7.582 7.582 0 0 0 2.7-2 8.872 8.872 0 0 0 1.7-3.1 12.99 12.99 0 0 0 .55-4 11.64 11.64 0 0 0-.68-4.1 8.217 8.217 0 0 0-5-5.05 10.832 10.832 0 0 0-4-.68h-1.18l.05.03zm-50.45.4v18.8h3.45V9.93l-3.45-.01zm108 2.53a5.618 5.618 0 0 1 2.52.52 4.686 4.686 0 0 1 1.72 1.46 6 6 0 0 1 1 2.17c.197.896.291 1.812.28 2.73a7.172 7.172 0 0 1-1.65 5.07 5.8 5.8 0 0 1-4.45 1.8c-.775.009-1.55-.031-2.32-.12a11.626 11.626 0 0 1-1.48-.28V13.9a7.222 7.222 0 0 1 1.82-1 6.898 6.898 0 0 1 2.58-.47l-.02.02zm-56.43.07a5.83 5.83 0 0 1 4.45 1.77 7.083 7.083 0 0 1 1.65 5c.004.909-.097 1.815-.3 2.7a6.058 6.058 0 0 1-1 2.17 4.58 4.58 0 0 1-1.72 1.45 5.58 5.58 0 0 1-2.53.53 7.512 7.512 0 0 1-4.4-1.45V12.88c.45-.118.908-.201 1.37-.25a20.754 20.754 0 0 1 2.43-.1l.05-.01zM160.1 20c.669-.007 1.338.036 2 .13.413.048.818.156 1.2.32v5.6a9.988 9.988 0 0 1-1.57.2h-2.15a6.304 6.304 0 0 1-3.22-.7 2.693 2.693 0 0 1-1.18-2.52 2.443 2.443 0 0 1 .47-1.58 3.331 3.331 0 0 1 1.2-.92 5.246 5.246 0 0 1 1.6-.45 14.905 14.905 0 0 1 1.65-.08z" fill-rule="nonzero"/><path d="M20 21.33V36.4a18.249 18.249 0 0 0 12.9-7.24L20 21.33zm14.71 4.89a18.08 18.08 0 0 0 1.88-8C36.609 8.818 29.363.86 20 0v17.29l14.71 8.93zM1.84 10.27A18.074 18.074 0 0 0 0 18.2c.006 9.377 7.234 17.302 16.57 18.17V19.23L1.84 10.27zm14.73 4.92V0A18.25 18.25 0 0 0 3.62 7.32l12.95 7.87z" fill="rgb(0,125,246)" fill-rule="nonzero"/></svg>

<?xml version="1.0" encoding="UTF-8" standalone="no"?>
<!DOCTYPE svg PUBLIC "-//W3C//DTD SVG 1.1//EN" "http://www.w3.org/Graphics/SVG/1.1/DTD/svg11.dtd">
<svg width="100%" height="100%" viewBox="0 0 210 37" version="1.1" xmlns="http://www.w3.org/2000/svg" xmlns:xlink="http://www.w3.org/1999/xlink" xml:space="preserve" xmlns:serif="http://www.serif.com/" style="fill-rule:evenodd;clip-rule:evenodd;stroke-linejoin:round;stroke-miterlimit:1.41421;">
    <path d="M141.33,1L141.33,23.8C141.214,25.246 141.703,26.678 142.68,27.75C143.57,28.6 145.06,29.06 147.18,29.1L147.65,26.28C147.194,26.221 146.742,26.128 146.3,26C145.963,25.911 145.654,25.739 145.4,25.5C145.169,25.265 145.006,24.971 144.93,24.65C144.82,24.202 144.769,23.741 144.78,23.28L144.78,1L141.33,1ZM173.9,1L173.9,28.2C174.69,28.42 175.69,28.63 176.9,28.85C178.305,29.078 179.727,29.185 181.15,29.17C182.514,29.192 183.87,28.961 185.15,28.49C186.277,28.061 187.3,27.396 188.15,26.54C189.004,25.656 189.659,24.599 190.07,23.44C190.549,22.127 190.786,20.738 190.77,19.34C190.785,17.985 190.59,16.635 190.19,15.34C189.847,14.199 189.279,13.138 188.52,12.22C187.774,11.359 186.844,10.675 185.8,10.22C184.64,9.716 183.385,9.468 182.12,9.49C181.119,9.478 180.122,9.63 179.17,9.94C178.509,10.143 177.872,10.418 177.27,10.76L177.27,1L173.9,1ZM75.43,2.1C74.849,2.089 74.285,2.304 73.86,2.7C73.42,3.111 73.188,3.699 73.23,4.3C73.193,4.909 73.423,5.504 73.86,5.93C74.767,6.691 76.103,6.691 77.01,5.93C77.448,5.508 77.685,4.918 77.66,4.31C77.689,3.703 77.447,3.113 77,2.7C76.574,2.305 76.011,2.09 75.43,2.1ZM61.58,9.45C59.75,9.344 57.936,9.855 56.43,10.9C55.19,11.845 54.49,13.342 54.56,14.9C54.482,16.302 55.091,17.657 56.19,18.53C56.722,18.96 57.311,19.313 57.94,19.58C58.62,19.88 59.32,20.19 60.07,20.48C61.229,20.895 62.336,21.442 63.37,22.11C64.017,22.544 64.395,23.282 64.37,24.06C64.415,24.781 64.019,25.462 63.37,25.78C62.387,26.204 61.319,26.393 60.25,26.33C59.085,26.369 57.92,26.223 56.8,25.9L54.98,25.28L54.98,28.38C55.32,28.5 55.73,28.63 56.25,28.78C57.56,29.09 58.905,29.224 60.25,29.18C62.215,29.304 64.174,28.845 65.88,27.86C67.212,26.981 67.976,25.453 67.88,23.86C67.905,23.09 67.769,22.324 67.48,21.61C67.22,21.006 66.827,20.47 66.33,20.04C65.745,19.568 65.095,19.184 64.4,18.9C63.68,18.58 62.89,18.24 61.98,17.9C61.29,17.66 60.7,17.44 60.2,17.22C59.757,17.037 59.338,16.802 58.95,16.52C58.648,16.295 58.402,16.004 58.23,15.67C58.059,15.329 57.974,14.951 57.98,14.57C57.948,13.825 58.373,13.131 59.05,12.82C59.833,12.435 60.698,12.246 61.57,12.27C62.519,12.25 63.467,12.351 64.39,12.57C64.986,12.71 65.566,12.911 66.12,13.17L66.12,10.07L66,10C65.64,9.9 65.22,9.81 64.75,9.73C64.28,9.65 63.75,9.56 63.25,9.5C62.712,9.448 62.171,9.425 61.63,9.43L61.58,9.45ZM159.28,9.45C158.151,9.444 157.024,9.535 155.91,9.72C155.311,9.822 154.719,9.965 154.14,10.15L154.14,13.05C154.751,12.836 155.38,12.679 156.02,12.58C157.01,12.406 158.014,12.322 159.02,12.33C159.763,12.309 160.503,12.445 161.19,12.73C161.7,12.949 162.147,13.293 162.49,13.73C162.814,14.16 163.043,14.654 163.16,15.18C163.28,15.722 163.34,16.275 163.34,16.83L163.34,17.78C163.24,17.78 163.06,17.7 162.81,17.66L161.96,17.51C161.63,17.45 161.28,17.4 160.91,17.36C160.54,17.32 160.18,17.36 159.84,17.36C158.791,17.356 157.745,17.467 156.72,17.69C155.812,17.872 154.942,18.21 154.15,18.69C153.422,19.139 152.82,19.765 152.4,20.51C151.948,21.329 151.723,22.255 151.75,23.19C151.722,24.143 151.91,25.09 152.3,25.96C152.644,26.711 153.178,27.359 153.85,27.84C154.572,28.323 155.38,28.663 156.23,28.84C157.214,29.067 158.221,29.178 159.23,29.17C159.99,29.17 160.75,29.17 161.53,29.07C162.31,28.97 163.01,28.94 163.68,28.87C164.35,28.8 164.95,28.73 165.48,28.64L166.73,28.44L166.73,16.65C166.74,15.661 166.616,14.675 166.36,13.72C165.869,11.958 164.522,10.558 162.78,10C161.652,9.625 160.468,9.449 159.28,9.48L159.28,9.45ZM203.08,9.45C201.273,9.354 199.484,9.865 198,10.9C196.751,11.841 196.04,13.337 196.1,14.9C196.047,16.295 196.647,17.638 197.72,18.53C198.26,18.959 198.855,19.312 199.49,19.58C200.17,19.88 200.88,20.19 201.62,20.48C202.773,20.894 203.874,21.441 204.9,22.11C205.544,22.546 205.921,23.283 205.9,24.06C205.943,24.781 205.547,25.46 204.9,25.78C203.917,26.204 202.849,26.392 201.78,26.33C200.615,26.368 199.45,26.223 198.33,25.9C197.48,25.62 196.88,25.4 196.48,25.25L196.48,28.38C196.82,28.49 197.25,28.63 197.78,28.78C199.09,29.09 200.435,29.224 201.78,29.18C203.745,29.304 205.704,28.845 207.41,27.86C208.74,26.98 209.504,25.453 209.41,23.86C209.433,23.09 209.297,22.324 209.01,21.61C208.739,21.005 208.335,20.469 207.83,20.04C207.281,19.572 206.668,19.185 206.01,18.89C205.3,18.57 204.5,18.23 203.58,17.89C202.89,17.65 202.3,17.43 201.81,17.21C201.367,17.028 200.947,16.793 200.56,16.51C200.254,16.287 200.004,15.996 199.83,15.66C199.661,15.318 199.575,14.941 199.58,14.56C199.553,13.813 199.98,13.12 200.66,12.81C201.436,12.424 202.294,12.235 203.16,12.26C204.119,12.24 205.076,12.341 206.01,12.56C206.594,12.693 207.164,12.884 207.71,13.13L207.71,10.08L207.56,10.03C207.2,9.93 206.78,9.84 206.31,9.76C205.84,9.68 205.31,9.59 204.78,9.53C204.242,9.478 203.701,9.455 203.16,9.46L203.08,9.45ZM91.08,9.52C89.991,9.553 88.905,9.66 87.83,9.84C86.53,10.06 85.49,10.25 84.7,10.44L84.7,28.73L88.1,28.73L88.1,12.85C88.2,12.85 88.4,12.77 88.7,12.73L89.7,12.61C90.06,12.61 90.43,12.61 90.83,12.54C91.23,12.47 91.58,12.49 91.93,12.49C92.616,12.471 93.299,12.6 93.93,12.87C94.451,13.113 94.886,13.506 95.18,14C95.519,14.62 95.739,15.299 95.83,16C95.97,16.943 96.037,17.896 96.03,18.85L96.03,28.7L99.46,28.7L99.46,18.15C99.461,17.364 99.411,16.579 99.31,15.8C99.215,15.122 99.065,14.453 98.86,13.8C99.331,13.446 99.854,13.166 100.41,12.97C101.323,12.642 102.29,12.489 103.26,12.52C103.969,12.496 104.676,12.625 105.33,12.9C105.847,13.134 106.283,13.517 106.58,14C106.917,14.62 107.131,15.299 107.21,16C107.336,16.945 107.396,17.897 107.39,18.85L107.39,28.7L110.82,28.7L110.82,18.15C110.828,16.994 110.734,15.84 110.54,14.7C110.375,13.732 110.003,12.811 109.45,12C108.899,11.207 108.136,10.584 107.25,10.2C106.1,9.74 104.867,9.526 103.63,9.57C102.907,9.562 102.185,9.639 101.48,9.8C100.869,9.944 100.267,10.128 99.68,10.35C99.207,10.523 98.749,10.734 98.31,10.98C97.94,11.2 97.68,11.36 97.51,11.48C96.928,10.825 96.197,10.317 95.38,10C94.385,9.65 93.334,9.488 92.28,9.52L91.06,9.52L91.08,9.52ZM124.21,9.52C123.18,9.552 122.154,9.659 121.14,9.84C119.92,10.07 118.9,10.3 118.09,10.49L118.09,35.43L121.54,35.43L121.54,27.9C122.141,28.243 122.778,28.518 123.44,28.72C124.386,29.023 125.376,29.169 126.37,29.15C127.641,29.171 128.902,28.922 130.07,28.42C131.108,27.964 132.031,27.28 132.77,26.42C133.539,25.511 134.117,24.457 134.47,23.32C134.861,22.023 135.046,20.674 135.02,19.32C135.041,17.924 134.811,16.535 134.34,15.22C133.526,12.867 131.685,11.007 129.34,10.17C128.061,9.693 126.704,9.463 125.34,9.49L124.16,9.49L124.21,9.52ZM73.76,9.92L73.76,28.72L77.21,28.72L77.21,9.93L73.76,9.92ZM181.76,12.45C182.629,12.426 183.491,12.604 184.28,12.97C184.964,13.309 185.554,13.811 186,14.43C186.475,15.079 186.816,15.817 187,16.6C187.197,17.496 187.291,18.412 187.28,19.33C187.402,21.169 186.811,22.985 185.63,24.4C184.477,25.614 182.853,26.271 181.18,26.2C180.405,26.209 179.63,26.169 178.86,26.08C178.361,26.019 177.867,25.925 177.38,25.8L177.38,13.9C177.935,13.481 178.548,13.144 179.2,12.9C180.022,12.58 180.898,12.42 181.78,12.43L181.76,12.45ZM125.33,12.52C126.998,12.445 128.619,13.09 129.78,14.29C130.952,15.682 131.543,17.474 131.43,19.29C131.434,20.199 131.333,21.105 131.13,21.99C130.944,22.773 130.604,23.51 130.13,24.16C129.686,24.779 129.095,25.277 128.41,25.61C127.62,25.982 126.753,26.164 125.88,26.14C124.297,26.132 122.757,25.625 121.48,24.69L121.48,12.88C121.93,12.762 122.388,12.679 122.85,12.63C123.657,12.549 124.469,12.516 125.28,12.53L125.33,12.52ZM160.1,20C160.769,19.993 161.438,20.036 162.1,20.13C162.513,20.178 162.918,20.286 163.3,20.45L163.3,26.05C162.783,26.158 162.258,26.225 161.73,26.25L159.58,26.25C158.464,26.306 157.352,26.065 156.36,25.55C155.53,24.995 155.075,24.023 155.18,23.03C155.149,22.465 155.315,21.906 155.65,21.45C155.974,21.055 156.385,20.741 156.85,20.53C157.356,20.296 157.896,20.144 158.45,20.08C158.998,20.023 159.549,19.996 160.1,20Z" style="fill-rule:nonzero;"/>
    <path d="M20,21.33L20,36.4C25.127,35.917 29.817,33.285 32.9,29.16L20,21.33Z" style="fill:rgb(0,125,246);fill-rule:nonzero;"/>
    <path d="M34.71,26.22C35.942,23.733 36.586,20.996 36.59,18.22C36.609,8.818 29.363,0.86 20,0L20,17.29L34.71,26.22ZM1.84,10.27C0.632,12.739 0.002,15.451 0,18.2C0.006,27.577 7.234,35.502 16.57,36.37L16.57,19.23L1.84,10.27Z" style="fill:rgb(0,125,246);fill-rule:nonzero;"/>
    <path d="M16.57,15.19L16.57,0C11.412,0.489 6.699,3.153 3.62,7.32L16.57,15.19Z" style="fill:rgb(0,125,246);fill-rule:nonzero;"/>
</svg>
